images/grafik_pw_reset_password_M.svg

<svg width="136" height="136" viewBox="0 0 136 136" fill="none" xmlns="http://www.w3.org/2000/svg">
<path d="M37.7385 121.31C35.091 120.738 3.28103 115.581 5.62478 77.5502C7.96853 39.5189 10.906 28.0814 23.2735 23.8964C35.641 19.7114 65.6998 -0.0873109 89.2898 18.7389C95.4148 23.6264 101.654 28.3552 107.615 33.4702C115.805 40.5002 124.227 48.6164 128.25 59.2502C130.146 64.2701 130.857 69.6602 130.329 75.0002C129.712 81.2764 128.845 87.3752 127.265 93.5002C126.727 95.5835 126.189 97.6668 125.651 99.7502C125.329 101 125.004 102.258 124.495 103.435C121.224 111.023 117.097 116.001 110.184 120.041C104.184 123.541 96.7485 123.455 90.121 123.069C63.7673 121.533 50.3273 124.033 37.7385 121.31Z" fill="#F9F9F9"/>
<path d="M17.8296 49.9002V94.0252C17.8296 98.0477 20.9758 101.31 24.8596 101.31H109.936C113.811 101.31 116.958 98.0502 116.958 94.0252V49.9002C116.958 45.8765 113.815 42.6152 109.936 42.6152H24.8546C20.9758 42.6165 17.8296 45.8752 17.8296 49.9002Z" fill="white"/>
<path d="M117.215 49.8992V94.0242C117.215 98.1804 113.949 101.565 109.936 101.565H24.8548C20.8398 101.565 17.5698 98.1829 17.5698 94.0242V49.8992C17.5698 45.7429 20.8348 42.3579 24.8548 42.3579H109.936C113.949 42.3604 117.215 45.7429 117.215 49.8992ZM18.0898 94.0242C18.0898 97.8992 21.1261 101.054 24.8636 101.054H109.936C113.667 101.054 116.704 97.9017 116.704 94.0242V49.8992C116.704 46.0242 113.667 42.8692 109.936 42.8692H24.8548C21.1223 42.8692 18.0811 46.0229 18.0811 49.8992L18.0898 94.0242Z" fill="#6A79A8"/>
<path d="M115.084 68.394V75.3102C115.092 75.6856 115.026 76.0588 114.89 76.4087C114.754 76.7586 114.55 77.0783 114.291 77.3495C114.031 77.6207 113.721 77.8381 113.377 77.9894C113.033 78.1406 112.663 78.2226 112.288 78.2308C111.913 78.2391 111.539 78.1733 111.19 78.0372C110.84 77.9012 110.52 77.6975 110.249 77.4379C109.977 77.1783 109.76 76.8678 109.609 76.5242C109.458 76.1806 109.376 75.8106 109.367 75.4352C109.367 75.3952 109.367 75.3552 109.367 75.3102V68.394C109.359 68.0186 109.425 67.6454 109.561 67.2955C109.697 66.9455 109.901 66.6259 110.16 66.3547C110.42 66.0835 110.73 65.866 111.074 65.7148C111.418 65.5636 111.788 65.4815 112.163 65.4733C112.538 65.4651 112.912 65.5309 113.262 65.667C113.611 65.803 113.931 66.0067 114.202 66.2663C114.474 66.5259 114.691 66.8363 114.842 67.18C114.993 67.5236 115.075 67.8936 115.084 68.269C115.085 68.3127 115.085 68.3527 115.084 68.394ZM109.875 75.3102C109.868 75.6184 109.921 75.925 110.032 76.2125C110.144 76.5 110.311 76.7628 110.523 76.9858C110.736 77.2089 110.991 77.3878 111.273 77.5124C111.555 77.637 111.859 77.7049 112.167 77.7121C112.475 77.7193 112.782 77.6658 113.069 77.5545C113.357 77.4432 113.619 77.2764 113.842 77.0636C114.065 76.8508 114.244 76.5961 114.369 76.3141C114.494 76.0322 114.561 75.7284 114.569 75.4202C114.569 75.384 114.569 75.3477 114.569 75.3102V68.394C114.576 68.0858 114.522 67.7792 114.411 67.4917C114.3 67.2042 114.133 66.9414 113.92 66.7184C113.707 66.4953 113.453 66.3164 113.171 66.1918C112.889 66.0672 112.585 65.9993 112.277 65.9921C111.654 65.9775 111.052 66.2108 110.601 66.6406C110.151 67.0704 109.889 67.6615 109.875 68.284C109.875 68.3202 109.875 68.3565 109.875 68.394V75.3102Z" fill="#6A79A8"/>
<g clip-path="url(#clip0)">
<path d="M117.208 94.2664L117.667 50.7426C117.713 46.4651 109.097 43.1176 98.4999 43.2738L36.9188 44.1851C26.8979 44.3326 18.8648 47.7938 18.9089 51.9101L19.3052 93.8026C19.3442 97.8426 27.3483 101.178 37.2547 101.249L98.1149 101.714C108.58 101.795 117.163 98.4626 117.208 94.2664Z" fill="white"/>
<path d="M67.8838 43.7269L117.423 73.8519L117.667 50.7494C117.713 46.4719 109.097 43.1244 98.5001 43.2806L67.8838 43.7269Z" fill="#F0F9FC"/>
<path d="M80.6544 101.581L19.0356 65.0576L19.3074 93.7976C19.3464 97.8376 27.3505 101.173 37.2569 101.244L80.6544 101.581Z" fill="#F0F9FC"/>
<path d="M29.8271 44.8864L116.134 96.7251C116.811 95.9589 117.2 95.1314 117.208 94.2664L117.269 88.6139L43.4739 44.0889L36.9242 44.1851C34.5425 44.2141 32.1679 44.4487 29.8271 44.8864V44.8864Z" fill="#F0F9FC"/>
</g>
<path d="M107.71 45.8682V98.0607C107.71 98.127 107.683 98.1906 107.636 98.2375C107.59 98.2844 107.526 98.3107 107.46 98.3107H29.7797C29.7463 98.3115 29.7132 98.3057 29.6821 98.2935C29.651 98.2813 29.6227 98.263 29.5989 98.2397C29.575 98.2164 29.556 98.1886 29.543 98.1578C29.5301 98.1271 29.5234 98.0941 29.5234 98.0607V45.8682C29.5234 45.8349 29.5301 45.8019 29.543 45.7711C29.556 45.7404 29.575 45.7125 29.5989 45.6892C29.6227 45.6659 29.651 45.6476 29.6821 45.6354C29.7132 45.6233 29.7463 45.6174 29.7797 45.6182H107.453C107.487 45.6174 107.52 45.6233 107.551 45.6354C107.582 45.6476 107.61 45.6659 107.634 45.6892C107.658 45.7125 107.677 45.7404 107.69 45.7711C107.703 45.8019 107.71 45.8349 107.71 45.8682ZM107.198 97.8045V46.1257H30.0347V97.8045H107.198Z" fill="#6A79A8"/>
<path d="M92.1001 64.165H65.9676C61.53 64.165 57.9326 67.7624 57.9326 72.2V72.2013C57.9326 76.6389 61.53 80.2363 65.9676 80.2363H92.1001C96.5377 80.2363 100.135 76.6389 100.135 72.2013V72.2C100.135 67.7624 96.5377 64.165 92.1001 64.165Z" fill="#EFEFEF"/>
<path d="M66.6353 64.165H92.6352C94.6244 64.165 96.532 64.9552 97.9385 66.3617C99.3451 67.7683 100.135 69.6759 100.135 71.665V71.665C100.135 73.6542 99.3451 75.5618 97.9385 76.9683C96.532 78.3749 94.6244 79.165 92.6352 79.165H66.6353C64.6461 79.165 62.7385 78.3749 61.3319 76.9683C59.9254 75.5618 59.1353 73.6542 59.1353 71.665V71.665C59.1353 69.6759 59.9254 67.7683 61.3319 66.3617C62.7385 64.9552 64.6461 64.165 66.6353 64.165V64.165Z" fill="white"/>
<path d="M92.2152 80.0578H68.6589C66.4177 80.0578 64.2364 80.1915 62.1989 79.0165C60.9709 78.309 59.9555 77.2845 59.2587 76.0502C58.562 74.816 58.2096 73.4173 58.2384 72.0002C58.2671 70.5832 58.6759 69.1999 59.4221 67.9949C60.1683 66.7899 61.2245 65.8075 62.4802 65.1503C62.8377 64.9603 62.3077 64.849 62.1052 64.9578C59.8752 66.1378 58.2377 68.2578 57.7714 70.7503C57.5564 71.9155 57.5964 73.1135 57.8888 74.2617C58.1812 75.4099 58.719 76.4811 59.4652 77.4015C60.1869 78.2772 61.0807 78.9953 62.0913 79.5114C63.1019 80.0274 64.2077 80.3304 65.3402 80.4016C65.9177 80.4391 66.5027 80.4178 67.0814 80.4178H91.9839C92.2189 80.4178 92.6227 80.0628 92.2152 80.0628V80.0578Z" fill="#6A79A8"/>
<path d="M63.9262 64.6599C65.9075 64.1599 68.1912 64.3973 70.2162 64.3973H91.945C93.8692 64.3797 95.7323 65.0725 97.1775 66.343C98.6228 67.6136 99.5485 69.3726 99.7775 71.2833C100.006 73.1939 99.5225 75.1219 98.4184 76.6979C97.3143 78.274 95.6676 79.3874 93.7937 79.8248C93.4187 79.9136 93.5337 80.3498 93.9112 80.2623C98.9912 79.0736 101.924 73.4161 99.6449 68.6373C99.1071 67.5223 98.3274 66.5412 97.3626 65.7656C96.3977 64.9899 95.272 64.4392 94.0674 64.1536C93.1399 63.9361 92.2125 63.9336 91.2712 63.9336H67.2712C66.0975 63.9336 64.9687 63.9336 63.8112 64.2248C63.4362 64.3211 63.5525 64.7573 63.9287 64.6611L63.9262 64.6599Z" fill="#6A79A8"/>
<path d="M67.6611 68.48V75.98C67.6611 76.2663 68.2686 76.1563 68.2686 75.92V68.42C68.2686 68.1338 67.6611 68.2438 67.6611 68.48Z" fill="#6A79A8"/>
<path d="M65.0375 69.6836L70.3412 74.9874C70.5399 75.1861 71.11 74.9336 70.8925 74.7161L65.5887 69.4136C65.39 69.2136 64.82 69.4661 65.0375 69.6836Z" fill="#6A79A8"/>
<path d="M64.1009 72.3836H71.6009C71.8509 72.3836 72.2359 72.0161 71.8284 72.0161H64.3284C64.0859 72.0161 63.6946 72.3836 64.1009 72.3836Z" fill="#6A79A8"/>
<path d="M65.5876 74.8337L70.8913 69.53C71.0238 69.3975 70.4513 69.4587 70.3426 69.5675L65.0388 74.875C64.9063 75 65.4788 74.9425 65.5876 74.8337Z" fill="#6A79A8"/>
<path d="M78.7603 68.4877V75.9876C78.7603 76.2376 79.364 76.1126 79.364 75.9126V68.4126C79.364 68.1626 78.7603 68.2877 78.7603 68.4877Z" fill="#6A79A8"/>
<path d="M76.1353 69.6836L81.4391 74.9874C81.6378 75.1861 82.2078 74.9349 81.9903 74.7161L76.6878 69.4136C76.4891 69.2136 75.9191 69.4661 76.1366 69.6836H76.1353Z" fill="#6A79A8"/>
<path d="M75.2899 72.4325H82.7899C83.1424 72.4325 83.2462 71.9688 82.8374 71.9688H75.3374C74.9849 71.9688 74.8811 72.4325 75.2899 72.4325Z" fill="#6A79A8"/>
<path d="M76.6864 74.8326L81.9901 69.5288C82.1151 69.4038 81.5489 69.4601 81.4414 69.5676L76.1351 74.8751C76.0101 75.0001 76.5763 74.9438 76.6838 74.8363L76.6864 74.8326Z" fill="#6A79A8"/>
<path d="M89.8003 68.5312V76.0313C89.8003 76.1263 90.4041 76.0413 90.4041 75.8688V68.375C90.4041 68.275 89.8003 68.3587 89.8003 68.5312Z" fill="#6A79A8"/>
<path d="M87.1648 69.6474L92.4686 74.9512C92.5699 75.0524 93.1124 74.8262 93.0399 74.7525L87.7361 69.4499C87.6348 69.3474 87.0923 69.5749 87.1648 69.6474Z" fill="#6A79A8"/>
<path d="M86.1587 72.3313H93.6587C93.7974 72.3313 94.3449 72.0688 94.0462 72.0688H86.5462C86.4074 72.0688 85.8599 72.3313 86.1587 72.3313Z" fill="#6A79A8"/>
<path d="M87.7291 74.8448L93.0316 69.5424C93.1879 69.3861 92.5979 69.4336 92.4766 69.5549L87.1741 74.8573C87.0178 75.0135 87.6078 74.9673 87.7291 74.8448Z" fill="#6A79A8"/>
<path d="M45.6539 59.7576C43.7546 59.7576 41.9332 60.5121 40.5902 61.8551C39.2472 63.1981 38.4927 65.0196 38.4927 66.9188V66.9188V71.2863H40.5589V66.9726C40.5586 65.6212 41.095 64.325 42.0503 63.3691C43.0055 62.4131 44.3013 61.8758 45.6527 61.8751V61.8751C46.3221 61.8748 46.985 62.0064 47.6035 62.2623C48.222 62.5183 48.784 62.8937 49.2574 63.3669C49.7308 63.8402 50.1063 64.4022 50.3625 65.0206C50.6186 65.6391 50.7503 66.3019 50.7502 66.9713V66.9713V67.7351C50.7505 67.8368 50.791 67.9342 50.8629 68.0061C50.9348 68.078 51.0323 68.1185 51.1339 68.1188H52.4327C52.4831 68.119 52.5331 68.1092 52.5797 68.09C52.6264 68.0707 52.6687 68.0425 52.7044 68.0068C52.7401 67.9711 52.7683 67.9288 52.7876 67.8821C52.8068 67.8355 52.8166 67.7855 52.8164 67.7351V67.7351V66.9176C52.8164 65.9772 52.6312 65.0459 52.2713 64.1771C51.9114 63.3083 51.3839 62.5188 50.7189 61.8538C50.054 61.1888 49.2645 60.6614 48.3957 60.3015C47.5268 59.9416 46.5956 59.7563 45.6552 59.7563L45.6539 59.7576Z" fill="#EFEFEF"/>
<path d="M45.6541 59.7576C42.4166 59.7576 39.3691 62.9638 39.3691 66.9188V71.2863H40.5591V66.9726C40.5588 65.6212 41.0952 64.325 42.0505 63.3691C43.0057 62.4131 44.3015 61.8758 45.6529 61.8751H45.2779C49.5404 61.6126 51.6241 64.1563 51.6241 66.9713V67.7351C51.6241 67.8367 51.6644 67.9341 51.7361 68.006C51.8078 68.0779 51.9051 68.1185 52.0066 68.1188H52.4304C52.4808 68.119 52.5308 68.1092 52.5774 68.09C52.6241 68.0707 52.6664 68.0425 52.7021 68.0068C52.7378 67.9711 52.766 67.9288 52.7853 67.8821C52.8045 67.8355 52.8143 67.7855 52.8141 67.7351V67.7351V66.9176C52.8141 65.0183 52.0597 63.1968 50.7167 61.8538C49.3737 60.5108 47.5522 59.7563 45.6529 59.7563L45.6541 59.7576Z" fill="white"/>
<path d="M40.8639 68.9614C40.8639 67.8289 40.7389 66.6089 41.0689 65.5101C41.6501 63.5439 43.4814 62.0976 45.5464 62.0826C47.5776 62.0689 49.4426 63.4026 50.1376 65.3014C50.4101 66.0514 50.4451 66.8014 50.4451 67.5826C50.4451 68.1376 50.6839 68.3326 51.2239 68.3326C51.6651 68.3326 52.2839 68.4451 52.7076 68.2776C53.2514 68.0639 53.1226 67.4464 53.1201 66.9751C53.1326 65.238 52.535 63.5516 51.4314 62.2101C49.1639 59.4939 45.1664 58.7964 42.0751 60.4851C40.3835 61.4095 39.1117 62.9484 38.5226 64.7839C38.0926 66.1464 38.1889 67.5789 38.1889 68.9876C38.1889 69.2864 38.7976 69.1851 38.7976 68.9339C38.7976 67.8939 38.7239 66.8176 38.8839 65.7876C39.1698 63.9695 40.1634 62.3383 41.6476 61.2501C44.7339 59.0089 49.1214 59.8751 51.2726 62.9826C51.7933 63.7371 52.1606 64.5865 52.3539 65.4826C52.5101 66.2001 52.4589 66.8989 52.5139 67.6189C52.5139 67.6189 52.5464 67.8901 52.5526 67.8764C52.5214 67.9501 52.5764 67.8826 52.4276 67.9214C52.1689 67.9864 51.8164 67.9214 51.5526 67.9214C51.2651 67.9214 51.1201 67.9489 51.0651 67.6351C51.0489 67.4079 51.0489 67.1798 51.0651 66.9526C51.0164 63.5089 47.7626 61.0326 44.4226 61.8276C43.5453 62.0394 42.734 62.4649 42.061 63.0662C41.388 63.6675 40.8741 64.4259 40.5651 65.2739C40.1451 66.4664 40.2651 67.7739 40.2651 69.0239C40.2651 69.3226 40.8751 69.2201 40.8751 68.9689L40.8639 68.9614Z" fill="#6A79A8"/>
<path d="M48.2663 82.1427H43.0425C41.4674 82.1427 39.9567 81.5171 38.8428 80.4034C37.7288 79.2897 37.1029 77.7791 37.1025 76.204V70.8602C37.1029 70.569 37.2188 70.2899 37.4248 70.0841C37.6308 69.8783 37.9101 69.7627 38.2013 69.7627H53.1075C53.3986 69.7627 53.6778 69.8783 53.8836 70.0842C54.0894 70.29 54.205 70.5691 54.205 70.8602V70.8602V76.204C54.205 77.779 53.5794 79.2896 52.4656 80.4033C51.3519 81.517 49.8413 82.1427 48.2663 82.1427Z" fill="#F7E080"/>
<path d="M48.2664 81.4263H44.4327C42.8575 81.4263 41.3468 80.8007 40.2329 79.687C39.119 78.5733 38.493 77.0628 38.4927 75.4876V70.8626C38.493 70.5714 38.6089 70.2923 38.8149 70.0865C39.021 69.8807 39.3002 69.7651 39.5914 69.7651H53.1077C53.3987 69.7651 53.6779 69.8808 53.8837 70.0866C54.0895 70.2924 54.2052 70.5716 54.2052 70.8626V70.8626V75.4876C54.2052 77.0627 53.5795 78.5732 52.4658 79.6869C51.352 80.8006 49.8415 81.4263 48.2664 81.4263Z" fill="#FFEEA7"/>
<path d="M52.9117 79.5224C52.0055 80.8199 50.653 81.7299 49.0667 81.9362C48.4417 82.0187 47.7767 81.9787 47.1405 81.9787C45.6267 81.9787 44.0442 82.1149 42.5367 81.9449C39.8192 81.6374 37.6617 79.3524 37.428 76.6437C37.303 75.1787 37.4055 73.6699 37.4055 72.2012C37.4055 71.6812 37.2942 71.0112 37.4517 70.5025C37.643 69.8775 38.1292 69.925 38.6242 69.925H52.4205C52.9855 69.925 53.5692 69.8887 53.8292 70.55C54.0455 71.0987 53.9042 71.9012 53.9042 72.4737C53.9042 74.4474 54.1855 76.7137 53.428 78.5774C53.3555 78.7549 53.953 78.6874 54.0305 78.4962C54.7605 76.7187 54.5105 74.6037 54.5105 72.7199C54.5105 72.0799 54.548 71.4274 54.5105 70.7887C54.463 70.0099 53.858 69.6162 53.1355 69.5987C49.8692 69.5249 46.5917 69.5987 43.3242 69.5987H38.8242C38.418 69.5987 38.0167 69.5787 37.633 69.7499C36.8967 70.0774 36.813 70.7174 36.813 71.4199C36.813 73.0337 36.7955 74.6474 36.813 76.2599C36.8247 77.5418 37.2401 78.7873 38.0001 79.8195C38.7602 80.8517 39.8262 81.6182 41.0467 82.0099C42.6955 82.5287 44.6392 82.2987 46.343 82.2987C46.948 82.2987 47.553 82.3062 48.158 82.2987C49.5509 82.2937 50.9068 81.8497 52.033 81.0299C52.5973 80.6115 53.0888 80.1031 53.488 79.5249C53.638 79.3099 53.0355 79.3674 52.928 79.5249L52.9117 79.5224Z" fill="#6A79A8"/>
<path d="M47.1514 78.9786H44.1577L44.8752 75.5599C44.6576 75.4366 44.4767 75.2575 44.3513 75.0411C44.2258 74.8247 44.1603 74.5788 44.1615 74.3286C44.1615 73.9639 44.3063 73.6142 44.5642 73.3563C44.822 73.0985 45.1718 72.9536 45.5365 72.9536C45.9011 72.9536 46.2509 73.0985 46.5087 73.3563C46.7666 73.6142 46.9114 73.9639 46.9114 74.3286C46.9114 74.8599 46.6227 75.3211 46.4377 75.5599L47.1514 78.9786Z" fill="white"/>
<path d="M45.1051 75.386C44.5601 75.0373 44.2851 74.3535 44.5851 73.7448C44.6611 73.5845 44.7775 73.4468 44.9229 73.3452C45.0682 73.2437 45.2375 73.1817 45.4141 73.1654C45.5907 73.1491 45.7685 73.1791 45.93 73.2524C46.0915 73.3258 46.2311 73.4398 46.3351 73.5835C46.7413 74.1048 46.6326 74.7773 46.3038 75.3073C46.1538 75.5498 46.1351 75.5573 46.1726 75.8073C46.3401 76.8985 46.6276 77.9835 46.8538 79.0572L47.1826 78.7585H44.1826L44.4613 78.9535C44.6347 78.1243 44.808 77.296 44.9813 76.4685C45.0426 76.1735 44.4251 76.2485 44.3701 76.5147C44.1976 77.3439 44.0243 78.1727 43.8501 79.001C43.8176 79.1547 44.0251 79.196 44.1288 79.196H47.1288C47.2738 79.196 47.4938 79.071 47.4576 78.896C47.2976 78.126 47.1368 77.3564 46.9751 76.5872C46.9126 76.2872 46.7251 75.8372 46.7538 75.5272C46.8375 75.4419 46.9075 75.344 46.9613 75.2373C47.1339 74.9273 47.2202 74.5768 47.2113 74.2223C47.1613 73.0135 45.8363 72.381 44.7951 72.891C44.5331 73.0169 44.3097 73.2106 44.1481 73.4522C43.9865 73.6938 43.8927 73.9742 43.8763 74.2644C43.86 74.5546 43.9218 74.8438 44.0552 75.102C44.1887 75.3601 44.3889 75.5778 44.6351 75.7322C44.8563 75.8747 45.3851 75.5698 45.1013 75.386H45.1051Z" fill="#6A79A8"/>
<defs>
<clipPath id="clip0">
<rect width="77.5" height="52" fill="white" transform="translate(30 46.0005)"/>
</clipPath>
</defs>
</svg>

<svg xmlns="http://www.w3.org/2000/svg" width="136" height="136" fill="none"><path fill="#F9F9F9" d="M37.739 121.31c-2.648-.572-34.458-5.729-32.114-43.76 2.344-38.031 5.281-49.469 17.649-53.654C35.64 19.711 65.7-.087 89.29 18.74c6.125 4.887 12.364 9.616 18.325 14.731 8.19 7.03 16.612 15.146 20.635 25.78A34.866 34.866 0 0 1 130.329 75c-.617 6.276-1.484 12.375-3.064 18.5l-1.614 6.25c-.322 1.25-.647 2.508-1.156 3.685-3.271 7.588-7.398 12.566-14.311 16.606-6 3.5-13.435 3.414-20.063 3.028-26.354-1.536-39.794.964-52.382-1.759"/><path fill="#fff" d="M17.83 49.9v44.125c0 4.023 3.146 7.285 7.03 7.285h85.076c3.875 0 7.022-3.26 7.022-7.285V49.9c0-4.023-3.143-7.285-7.022-7.285H24.855c-3.88.002-7.025 3.26-7.025 7.285"/><path fill="#6A79A8" d="M117.215 49.9v44.124c0 4.156-3.266 7.541-7.279 7.541H24.855c-4.015 0-7.285-3.382-7.285-7.54V49.898c0-4.156 3.265-7.541 7.285-7.541h85.081c4.013.002 7.279 3.385 7.279 7.541M18.09 94.023c0 3.875 3.036 7.03 6.774 7.03h85.072c3.731 0 6.768-3.152 6.768-7.03V49.9c0-3.875-3.037-7.03-6.768-7.03H24.855c-3.733 0-6.774 3.154-6.774 7.03z"/><path fill="#6A79A8" d="M115.084 68.394v6.916a2.864 2.864 0 0 1-1.707 2.68 2.862 2.862 0 0 1-3.768-1.466 2.878 2.878 0 0 1-.242-1.089v-7.041a2.864 2.864 0 0 1 1.707-2.68 2.862 2.862 0 0 1 3.128.552 2.878 2.878 0 0 1 .882 2.128m-5.209 6.916a2.356 2.356 0 0 0 .648 1.676 2.35 2.35 0 0 0 3.846-.672c.125-.282.192-.586.2-.894v-7.026a2.357 2.357 0 0 0-.649-1.676 2.346 2.346 0 0 0-4.045 1.566v.11z"/><g clip-path="url(#a)"><path fill="#fff" d="m117.208 94.266.459-43.523c.046-4.278-8.57-7.625-19.167-7.47l-61.581.912c-10.021.148-18.054 3.609-18.01 7.725l.396 41.893c.04 4.04 8.043 7.375 17.95 7.446l60.86.465c10.465.081 19.048-3.251 19.093-7.448"/><path fill="#F0F9FC" d="m67.884 43.727 49.539 30.125.244-23.103c.046-4.277-8.57-7.625-19.167-7.468zm12.77 57.854L19.036 65.058l.271 28.74c.04 4.04 8.044 7.375 17.95 7.446zM29.827 44.886l86.307 51.84c.677-.767 1.066-1.595 1.074-2.46l.061-5.652-73.795-44.525-6.55.096a41.353 41.353 0 0 0-7.097.701"/></g><path fill="#6A79A8" d="M107.71 45.868v52.193a.25.25 0 0 1-.25.25H29.78a.25.25 0 0 1-.257-.25V45.868a.251.251 0 0 1 .257-.25h77.673a.252.252 0 0 1 .237.153.25.25 0 0 1 .02.097m-.512 51.937v-51.68H30.035v51.68z"/><path fill="#EFEFEF" d="M92.1 64.165H65.968a8.035 8.035 0 0 0-8.035 8.035v.001a8.035 8.035 0 0 0 8.035 8.035H92.1a8.035 8.035 0 0 0 8.035-8.035V72.2a8.035 8.035 0 0 0-8.035-8.035"/><path fill="#fff" d="M66.635 64.165h26a7.5 7.5 0 0 1 7.5 7.5 7.5 7.5 0 0 1-7.5 7.5h-26a7.5 7.5 0 0 1-7.5-7.5 7.5 7.5 0 0 1 7.5-7.5"/><path fill="#6A79A8" d="M92.215 80.058H68.66c-2.241 0-4.423.133-6.46-1.042a7.912 7.912 0 0 1 .281-13.866c.358-.19-.172-.301-.375-.192-2.23 1.18-3.867 3.3-4.334 5.792a8.2 8.2 0 0 0 1.694 6.651 8.287 8.287 0 0 0 5.875 3c.578.038 1.163.017 1.741.017h24.903c.235 0 .639-.355.231-.355zM63.926 64.66c1.981-.5 4.265-.263 6.29-.263h21.729a7.817 7.817 0 0 1 1.849 15.428c-.375.089-.26.525.117.437 5.08-1.188 8.013-6.846 5.734-11.625a8.325 8.325 0 0 0-5.578-4.483c-.927-.218-1.854-.22-2.796-.22h-24c-1.174 0-2.302 0-3.46.29-.375.097-.258.533.118.437z"/><path fill="#6A79A8" d="M67.661 68.48v7.5c0 .286.608.176.608-.06v-7.5c0-.286-.608-.176-.608.06"/><path fill="#6A79A8" d="m65.037 69.684 5.304 5.303c.199.2.769-.053.552-.27l-5.304-5.303c-.199-.2-.769.052-.552.27"/><path fill="#6A79A8" d="M64.1 72.384h7.5c.25 0 .636-.368.228-.368h-7.5c-.242 0-.633.368-.227.368"/><path fill="#6A79A8" d="m65.588 74.834 5.303-5.304c.133-.133-.44-.071-.548.037l-5.304 5.308c-.133.125.44.067.549-.041m13.172-6.346v7.5c0 .25.604.125.604-.075v-7.5c0-.25-.604-.125-.604.075"/><path fill="#6A79A8" d="m76.135 69.684 5.304 5.303c.199.2.769-.052.551-.27l-5.302-5.303c-.199-.2-.769.052-.551.27z"/><path fill="#6A79A8" d="M75.29 72.433h7.5c.352 0 .456-.464.047-.464h-7.5c-.352 0-.456.464-.047.464"/><path fill="#6A79A8" d="m76.686 74.833 5.304-5.304c.125-.125-.441-.069-.549.039l-5.306 5.307c-.125.125.441.069.549-.039zM89.8 68.531v7.5c0 .095.604.01.604-.162v-7.494c0-.1-.604-.016-.604.156"/><path fill="#6A79A8" d="m87.165 69.647 5.304 5.304c.1.101.643-.125.57-.198l-5.303-5.303c-.101-.103-.644.125-.571.197"/><path fill="#6A79A8" d="M86.159 72.331h7.5c.138 0 .686-.262.387-.262h-7.5c-.139 0-.686.262-.387.262"/><path fill="#6A79A8" d="m87.73 74.845 5.302-5.303c.156-.156-.434-.108-.555.013l-5.303 5.302c-.156.156.434.11.555-.012"/><path fill="#EFEFEF" d="M45.654 59.758a7.161 7.161 0 0 0-7.161 7.16v4.368h2.066v-4.313a5.096 5.096 0 0 1 5.094-5.098 5.097 5.097 0 0 1 5.097 5.096v.764a.385.385 0 0 0 .384.384h1.299a.382.382 0 0 0 .383-.384v-.817a7.161 7.161 0 0 0-7.16-7.162z"/><path fill="#fff" d="M45.654 59.758c-3.237 0-6.285 3.206-6.285 7.16v4.368h1.19v-4.313a5.096 5.096 0 0 1 5.094-5.098h-.375c4.262-.262 6.346 2.281 6.346 5.096v.764a.384.384 0 0 0 .383.384h.423a.382.382 0 0 0 .384-.384v-.817a7.161 7.161 0 0 0-7.161-7.162z"/><path fill="#6A79A8" d="M40.864 68.961c0-1.132-.125-2.352.205-3.45.581-1.967 2.412-3.413 4.477-3.428 2.032-.014 3.897 1.32 4.592 3.218.272.75.307 1.5.307 2.282 0 .555.239.75.779.75.441 0 1.06.112 1.484-.055.543-.214.415-.832.412-1.303a7.416 7.416 0 0 0-1.689-4.765c-2.267-2.716-6.265-3.414-9.356-1.725a7.516 7.516 0 0 0-3.552 4.299c-.43 1.362-.334 2.795-.334 4.204 0 .298.609.197.609-.054 0-1.04-.074-2.116.086-3.146a6.969 6.969 0 0 1 2.764-4.538c3.086-2.241 7.473-1.375 9.625 1.733a7 7 0 0 1 1.08 2.5c.157.717.106 1.416.16 2.136 0 0 .033.271.04.257-.032.074.023.007-.125.045-.26.065-.612 0-.875 0-.288 0-.433.028-.488-.286a4.798 4.798 0 0 1 0-.682c-.049-3.444-3.302-5.92-6.642-5.125a5.472 5.472 0 0 0-3.858 3.446c-.42 1.192-.3 2.5-.3 3.75 0 .299.61.196.61-.055z"/><path fill="#F7E080" d="M48.266 82.143h-5.224a5.94 5.94 0 0 1-5.94-5.939V70.86a1.1 1.1 0 0 1 1.1-1.097h14.906a1.097 1.097 0 0 1 1.097 1.097v5.344a5.938 5.938 0 0 1-5.939 5.939"/><path fill="#FFEEA7" d="M48.266 81.426h-3.833a5.94 5.94 0 0 1-5.94-5.938v-4.625a1.099 1.099 0 0 1 1.098-1.098h13.517a1.098 1.098 0 0 1 1.097 1.098v4.625a5.939 5.939 0 0 1-5.939 5.938"/><path fill="#6A79A8" d="M52.912 79.522c-.907 1.298-2.259 2.208-3.845 2.414-.625.083-1.29.043-1.926.043-1.514 0-3.097.136-4.604-.034-2.718-.308-4.875-2.593-5.109-5.301-.125-1.465-.022-2.974-.022-4.443 0-.52-.112-1.19.046-1.698.191-.626.677-.578 1.172-.578H52.42c.566 0 1.15-.036 1.41.625.215.549.074 1.351.074 1.924 0 1.973.281 4.24-.476 6.103-.072.178.525.11.603-.08.73-1.778.48-3.893.48-5.777 0-.64.037-1.293 0-1.931-.048-.78-.653-1.173-1.376-1.19-3.266-.074-6.543 0-9.81 0h-4.5c-.407 0-.808-.02-1.192.15-.736.328-.82.968-.82 1.67 0 1.615-.018 3.228 0 4.84a6.097 6.097 0 0 0 4.234 5.75c1.649.52 3.592.29 5.296.29.605 0 1.21.007 1.815 0a6.625 6.625 0 0 0 3.875-1.27 6.4 6.4 0 0 0 1.455-1.504c.15-.215-.453-.158-.56 0z"/><path fill="#fff" d="M47.151 78.979h-2.993l.717-3.42a1.408 1.408 0 0 1-.714-1.23 1.375 1.375 0 1 1 2.75 0c0 .53-.288.992-.473 1.23z"/><path fill="#6A79A8" d="M45.105 75.386c-.545-.349-.82-1.032-.52-1.641a1.021 1.021 0 0 1 1.75-.162c.406.522.298 1.194-.031 1.724-.15.243-.169.25-.131.5.167 1.091.455 2.177.68 3.25l.33-.299h-3l.278.196.52-2.485c.062-.295-.556-.22-.61.046L43.85 79c-.033.154.174.195.278.195h3c.145 0 .365-.125.329-.3-.16-.77-.321-1.54-.483-2.309-.062-.3-.25-.75-.221-1.06a1.16 1.16 0 0 0 .207-.29c.173-.31.26-.66.25-1.015-.05-1.209-1.375-1.841-2.416-1.331a1.625 1.625 0 0 0-.16 2.841c.221.143.75-.162.466-.346z"/><defs><clipPath id="a"><path fill="#fff" d="M30 46h77.5v52H30z"/></clipPath></defs></svg>
